X:51
T: Gretlein
N: A0053B
O: Europa, Mitteleuropa, Deutschland
N: Nach Boehme die vermutete volkstuemliche Form von A0053A.
R: Romanze, Ballade, Lied
M: 6/4
L: 1/8
K: G
G2 | d4d2c4B2 | G4A2G4
G2 | d4d2c4B2 | A3Bc2B4
A2 | G4G2F4D2 | E4F2G4
B2 | A4A2G2F2E2 | D6
d6 | d4d2c2B2A2 | G6-G2z2

